src/icons/diff-modified.svg

<svg width="16" height="16" viewBox="0 0 16 16" fill="none" xmlns="http://www.w3.org/2000/svg">
<path fill-rule="evenodd" clip-rule="evenodd" d="M1.5 1H14.5L15 1.5V14.5L14.5 15H1.5L1 14.5V1.5L1.5 1ZM2 2V14H14V2H2ZM8 11C9.65685 11 11 9.65685 11 8C11 6.34315 9.65685 5 8 5C6.34315 5 5 6.34315 5 8C5 9.65685 6.34315 11 8 11Z" fill="white"/>
</svg>

<svg width="16" height="16" xmlns="http://www.w3.org/2000/svg"><path fill-rule="evenodd" clip-rule="evenodd" d="M1.5 1h13l.5.5v13l-.5.5h-13l-.5-.5v-13l.5-.5zM2 2v12h12V2H2zm6 9a3 3 0 1 0 0-6 3 3 0 0 0 0 6z"/></svg>
